flaticon/wild-west/whiskey-1.svg

<svg xmlns="http://www.w3.org/2000/svg" width="32" height="32" viewBox="0 0 24 24">
    <path d="M 19.441406 7.714844 L 15.429688 7.714844 L 15.429688 3.429688 L 16.714844 3.429688 C 17.660156 3.429688 18.429688 2.660156 18.429688 1.714844 C 18.429688 0.769531 17.660156 0 16.714844 0 L 7.285156 0 C 6.339844 0 5.570312 0.769531 5.570312 1.714844 C 5.570312 2.660156 6.339844 3.429688 7.285156 3.429688 L 8.570312 3.429688 L 8.570312 7.714844 L 4.558594 7.714844 C 4.171875 7.714844 3.855469 8.027344 3.855469 8.414062 L 3.855469 23.300781 C 3.855469 23.6875 4.171875 24 4.558594 24 L 19.441406 24 C 19.828125 24 20.144531 23.6875 20.144531 23.300781 L 20.144531 8.414062 C 20.144531 8.027344 19.828125 7.714844 19.441406 7.714844 Z M 7.285156 2.570312 C 6.8125 2.570312 6.429688 2.1875 6.429688 1.714844 C 6.429688 1.242188 6.8125 0.855469 7.285156 0.855469 L 8.570312 0.855469 L 8.570312 1.714844 C 8.570312 1.949219 8.761719 2.144531 9 2.144531 C 9.238281 2.144531 9.429688 1.949219 9.429688 1.714844 L 9.429688 0.855469 L 16.714844 0.855469 C 17.1875 0.855469 17.570312 1.242188 17.570312 1.714844 C 17.570312 2.1875 17.1875 2.570312 16.714844 2.570312 L 13.285156 2.570312 L 13.285156 5.0625 C 13.285156 5.65625 12.917969 6.175781 12.40625 6.355469 C 12.378906 6.367188 12.351562 6.375 12.324219 6.382812 C 12.28125 6.394531 12.238281 6.402344 12.195312 6.410156 C 12.152344 6.414062 12.113281 6.417969 12.070312 6.421875 C 12.023438 6.425781 11.976562 6.425781 11.929688 6.421875 C 11.886719 6.417969 11.84375 6.414062 11.800781 6.410156 C 11.757812 6.402344 11.714844 6.390625 11.671875 6.382812 C 11.632812 6.371094 11.589844 6.359375 11.554688 6.34375 C 11.507812 6.328125 11.464844 6.308594 11.421875 6.285156 C 11.390625 6.269531 11.359375 6.253906 11.328125 6.234375 C 11.277344 6.203125 11.230469 6.167969 11.183594 6.128906 C 11.164062 6.113281 11.144531 6.097656 11.125 6.082031 C 11.074219 6.035156 11.03125 5.980469 10.988281 5.925781 C 10.976562 5.914062 10.964844 5.902344 10.953125 5.886719 C 10.910156 5.824219 10.871094 5.753906 10.839844 5.6875 C 10.835938 5.675781 10.828125 5.667969 10.824219 5.660156 C 10.789062 5.582031 10.765625 5.503906 10.746094 5.421875 C 10.746094 5.417969 10.742188 5.414062 10.742188 5.410156 C 10.722656 5.320312 10.714844 5.234375 10.714844 5.144531 L 10.714844 2.570312 Z M 19.285156 23.144531 L 4.714844 23.144531 L 4.714844 8.570312 L 9.429688 8.570312 L 9.429688 3.429688 L 9.855469 3.429688 L 9.855469 5.144531 C 9.855469 5.292969 9.875 5.441406 9.902344 5.585938 C 9.90625 5.601562 9.914062 5.617188 9.917969 5.632812 C 9.949219 5.757812 9.988281 5.882812 10.039062 6 C 10.050781 6.027344 10.070312 6.054688 10.082031 6.082031 C 10.132812 6.183594 10.1875 6.28125 10.25 6.375 C 10.277344 6.410156 10.308594 6.441406 10.335938 6.476562 C 10.398438 6.554688 10.460938 6.628906 10.535156 6.699219 C 10.546875 6.710938 10.554688 6.722656 10.566406 6.734375 C 10.59375 6.757812 10.625 6.773438 10.65625 6.796875 C 10.726562 6.855469 10.800781 6.914062 10.878906 6.960938 C 10.925781 6.988281 10.972656 7.011719 11.019531 7.039062 C 11.101562 7.078125 11.183594 7.117188 11.269531 7.148438 C 11.320312 7.167969 11.375 7.183594 11.425781 7.199219 C 11.511719 7.222656 11.597656 7.242188 11.683594 7.253906 C 11.746094 7.261719 11.808594 7.269531 11.871094 7.273438 C 11.914062 7.277344 11.957031 7.285156 12 7.285156 C 12.039062 7.285156 12.078125 7.277344 12.117188 7.273438 C 12.148438 7.273438 12.183594 7.277344 12.21875 7.273438 C 12.253906 7.269531 12.289062 7.257812 12.328125 7.253906 C 12.394531 7.242188 12.464844 7.226562 12.53125 7.210938 C 12.585938 7.195312 12.636719 7.179688 12.691406 7.160156 C 12.785156 7.128906 12.871094 7.09375 12.960938 7.046875 C 12.96875 7.042969 12.980469 7.039062 12.988281 7.03125 C 13.671875 6.671875 14.144531 5.964844 14.144531 5.144531 L 14.144531 3.429688 L 14.570312 3.429688 L 14.570312 8.570312 L 19.285156 8.570312 Z M 19.285156 23.144531"/>
    <path d="M11.570312 3.429688L12.429688 3.429688C12.664062 3.429688 12.855469 3.238281 12.855469 3 12.855469 2.761719 12.664062 2.570312 12.429688 2.570312L11.570312 2.570312C11.335938 2.570312 11.144531 2.761719 11.144531 3 11.144531 3.238281 11.335938 3.429688 11.570312 3.429688zM12.605469 10.714844L13.589844 9.730469C13.757812 9.5625 13.757812 9.292969 13.589844 9.125 13.421875 8.957031 13.148438 8.957031 12.984375 9.125L12 10.109375 11.015625 9.125C10.851562 8.957031 10.578125 8.957031 10.410156 9.125 10.242188 9.292969 10.242188 9.5625 10.410156 9.730469L11.394531 10.714844 9.429688 12.679688 7.464844 10.714844 8.445312 9.730469C8.613281 9.5625 8.613281 9.292969 8.445312 9.125 8.277344 8.957031 8.007812 8.957031 7.839844 9.125L6.855469 10.109375 5.875 9.125C5.707031 8.957031 5.4375 8.957031 5.269531 9.125 5.101562 9.292969 5.101562 9.5625 5.269531 9.730469L6.25 10.714844 5.269531 11.695312C5.101562 11.863281 5.101562 12.136719 5.269531 12.304688 5.351562 12.386719 5.460938 12.429688 5.570312 12.429688 5.679688 12.429688 5.789062 12.386719 5.875 12.304688L6.855469 11.320312 8.824219 13.285156 6.855469 15.25 5.875 14.269531C5.707031 14.101562 5.4375 14.101562 5.269531 14.269531 5.101562 14.4375 5.101562 14.707031 5.269531 14.875L6.25 15.855469 5.269531 16.839844C5.101562 17.007812 5.101562 17.277344 5.269531 17.445312 5.351562 17.53125 5.460938 17.570312 5.570312 17.570312 5.679688 17.570312 5.789062 17.53125 5.875 17.445312L6.855469 16.464844 8.824219 18.429688 6.855469 20.394531 5.875 19.410156C5.707031 19.242188 5.4375 19.242188 5.269531 19.410156 5.101562 19.578125 5.101562 19.851562 5.269531 20.015625L6.25 21 5.269531 21.984375C5.101562 22.148438 5.101562 22.421875 5.269531 22.589844 5.351562 22.671875 5.460938 22.714844 5.570312 22.714844 5.679688 22.714844 5.789062 22.671875 5.875 22.589844L6.855469 21.605469 7.839844 22.589844C7.921875 22.671875 8.03125 22.714844 8.144531 22.714844 8.253906 22.714844 8.363281 22.671875 8.445312 22.589844 8.613281 22.421875 8.613281 22.148438 8.445312 21.984375L7.464844 21 9.429688 19.035156 11.394531 21 10.410156 21.984375C10.242188 22.148438 10.242188 22.421875 10.410156 22.589844 10.496094 22.671875 10.605469 22.714844 10.714844 22.714844 10.824219 22.714844 10.933594 22.671875 11.015625 22.589844L12 21.605469 12.984375 22.589844C13.066406 22.671875 13.175781 22.714844 13.285156 22.714844 13.394531 22.714844 13.503906 22.671875 13.589844 22.589844 13.757812 22.421875 13.757812 22.148438 13.589844 21.984375L12.605469 21 14.570312 19.035156 16.535156 21 15.554688 21.984375C15.386719 22.148438 15.386719 22.421875 15.554688 22.589844 15.636719 22.671875 15.746094 22.714844 15.855469 22.714844 15.96875 22.714844 16.078125 22.671875 16.160156 22.589844L17.144531 21.605469 18.125 22.589844C18.210938 22.671875 18.320312 22.714844 18.429688 22.714844 18.539062 22.714844 18.648438 22.671875 18.730469 22.589844 18.898438 22.421875 18.898438 22.148438 18.730469 21.984375L17.75 21 18.730469 20.015625C18.898438 19.851562 18.898438 19.578125 18.730469 19.410156 18.5625 19.242188 18.292969 19.242188 18.125 19.410156L17.144531 20.394531 15.175781 18.429688 17.144531 16.464844 18.125 17.445312C18.210938 17.53125 18.320312 17.570312 18.429688 17.570312 18.539062 17.570312 18.648438 17.53125 18.730469 17.445312 18.898438 17.277344 18.898438 17.007812 18.730469 16.839844L17.75 15.855469 18.730469 14.875C18.898438 14.707031 18.898438 14.4375 18.730469 14.269531 18.5625 14.101562 18.292969 14.101562 18.125 14.269531L17.144531 15.25 15.175781 13.285156 17.144531 11.320312 18.125 12.304688C18.210938 12.386719 18.320312 12.429688 18.429688 12.429688 18.539062 12.429688 18.648438 12.386719 18.730469 12.304688 18.898438 12.136719 18.898438 11.863281 18.730469 11.695312L17.75 10.714844 18.730469 9.730469C18.898438 9.5625 18.898438 9.292969 18.730469 9.125 18.5625 8.957031 18.292969 8.957031 18.125 9.125L17.144531 10.109375 16.160156 9.125C15.992188 8.957031 15.722656 8.957031 15.554688 9.125 15.386719 9.292969 15.386719 9.5625 15.554688 9.730469L16.535156 10.714844 14.570312 12.679688zM12 11.320312L13.964844 13.285156 12 15.25 10.035156 13.285156zM7.464844 15.855469L9.429688 13.890625 11.394531 15.855469 9.429688 17.824219zM12 20.394531L10.035156 18.429688 12 16.464844 13.964844 18.429688zM16.535156 15.855469L14.570312 17.824219 12.605469 15.855469 14.570312 13.890625zM16.535156 15.855469"/>
</svg>

<svg xmlns="http://www.w3.org/2000/svg" width="32" height="32" viewBox="0 0 24 24">
    <path d="M19.441 7.715H15.43V3.43h1.285c.945 0 1.715-.77 1.715-1.715C18.43.77 17.66 0 16.715 0h-9.43C6.34 0 5.57.77 5.57 1.715c0 .945.77 1.715 1.715 1.715H8.57v4.285H4.56a.702.702 0 0 0-.704.7V23.3c0 .387.317.699.704.699H19.44a.702.702 0 0 0 .704-.7V8.415c0-.387-.317-.7-.704-.7zM7.285 2.57a.859.859 0 0 1 0-1.715H8.57v.86c0 .234.192.43.43.43a.43.43 0 0 0 .43-.43v-.86h7.285a.859.859 0 0 1 0 1.715h-3.43v2.493c0 .593-.367 1.113-.879 1.292-.027.012-.054.02-.082.028-.043.012-.086.02-.129.027l-.125.012a.845.845 0 0 1-.14 0l-.13-.012c-.042-.008-.085-.02-.128-.027-.04-.012-.082-.024-.117-.04a.807.807 0 0 1-.133-.058c-.031-.015-.063-.031-.094-.05a1.24 1.24 0 0 1-.144-.106l-.059-.047a1.305 1.305 0 0 1-.137-.156.352.352 0 0 1-.035-.04 1.447 1.447 0 0 1-.113-.199c-.004-.011-.012-.019-.016-.027a1.308 1.308 0 0 1-.078-.238c0-.004-.004-.008-.004-.012a1.227 1.227 0 0 1-.027-.265V2.57zm12 20.575H4.715V8.57H9.43V3.43h.425v1.715c0 .148.02.296.047.44.004.017.012.032.016.048.031.125.07.25.121.367.012.027.031.055.043.082.05.102.105.2.168.293.027.035.059.066.086.102.062.078.125.152.2.222.01.012.019.024.03.035.028.024.059.04.09.063.07.058.145.117.223.164.047.027.094.05.14.078.083.04.165.078.25.11.051.019.106.035.157.05a2.022 2.022 0 0 0 .445.074c.043.004.086.012.129.012.04 0 .078-.008.117-.012.031 0 .067.004.102 0 .035-.003.07-.015.11-.02a3.76 3.76 0 0 0 .202-.042 2.528 2.528 0 0 0 .43-.164c.008-.004.02-.008.027-.016a2.136 2.136 0 0 0 1.157-1.886V3.43h.425v5.14h4.715zm0 0"/>
    <path d="M11.57 3.43h.86a.428.428 0 0 0 .425-.43.428.428 0 0 0-.425-.43h-.86a.428.428 0 0 0-.425.43c0 .238.19.43.425.43zm0 0M12.605 10.715l.985-.985a.427.427 0 0 0 0-.605.427.427 0 0 0-.606 0l-.984.984-.984-.984a.427.427 0 0 0-.606 0 .427.427 0 0 0 0 .605l.985.985L9.43 12.68l-1.965-1.965.98-.985a.427.427 0 0 0 0-.605.427.427 0 0 0-.605 0l-.985.984-.98-.984a.427.427 0 0 0-.605 0 .427.427 0 0 0 0 .605l.98.985-.98.98a.431.431 0 0 0 .3.735c.11 0 .22-.043.305-.125l.98-.985 1.97 1.965-1.97 1.965-.98-.98a.427.427 0 0 0-.605 0 .427.427 0 0 0 0 .605l.98.98-.98.985a.427.427 0 0 0 .3.73c.11 0 .22-.039.305-.125l.98-.98 1.97 1.965-1.97 1.965-.98-.985a.427.427 0 0 0-.605 0 .427.427 0 0 0 0 .606l.98.984-.98.984a.427.427 0 0 0 .3.73c.11 0 .22-.042.305-.124l.98-.985.985.985a.428.428 0 0 0 .605-.606L7.465 21l1.965-1.965L11.395 21l-.985.984a.427.427 0 0 0 .305.73c.11 0 .219-.042.3-.124l.985-.985.984.985a.426.426 0 0 0 .606 0 .427.427 0 0 0 0-.606L12.605 21l1.965-1.965L16.535 21l-.98.984a.427.427 0 0 0 .3.73.428.428 0 0 0 .305-.124l.985-.985.98.985a.426.426 0 0 0 .605 0 .427.427 0 0 0 0-.606L17.75 21l.98-.984a.427.427 0 0 0 0-.606.427.427 0 0 0-.605 0l-.98.985-1.97-1.965 1.97-1.965.98.98a.425.425 0 0 0 .305.125.427.427 0 0 0 .3-.73l-.98-.985.98-.98a.427.427 0 0 0 0-.605.427.427 0 0 0-.605 0l-.98.98-1.97-1.965 1.97-1.965.98.985a.426.426 0 0 0 .605 0 .431.431 0 0 0 0-.61l-.98-.98.98-.985a.427.427 0 0 0 0-.605.427.427 0 0 0-.605 0l-.98.984-.985-.984a.427.427 0 0 0-.605 0 .427.427 0 0 0 0 .605l.98.985-1.965 1.965zM12 11.32l1.965 1.965L12 15.25l-1.965-1.965zm-4.535 4.535l1.965-1.964 1.965 1.964-1.965 1.97zM12 20.395l-1.965-1.965L12 16.465l1.965 1.965zm4.535-4.54l-1.965 1.97-1.965-1.97 1.965-1.964zm0 0"/>
</svg>
